dist/fusion-logo.svg

<?xml version="1.0" encoding="UTF-8"?>
<svg width="114px" height="29px" viewBox="0 0 114 29" version="1.1" xmlns="http://www.w3.org/2000/svg" xmlns:xlink="http://www.w3.org/1999/xlink">
    <!-- Generator: Sketch 52.5 (67469) - http://www.bohemiancoding.com/sketch -->
    <title>Group</title>
    <desc>Created with Sketch.</desc>
    <g id="Experiments" stroke="none" stroke-width="1" fill="none" fill-rule="evenodd">
        <g id="Available-Assets-Empty-" transform="translate(-80.000000, -22.000000)" fill="#062144">
            <g id="Header">
                <g id="Group-4" transform="translate(80.000000, 20.000000)">
                    <g id="explorer-logo" transform="translate(0.000000, 2.000000)">
                        <g id="Group">
                            <path d="M40.1857143,12.4617143 L36.3742857,12.4617143 C36.2582857,12.4617143 36.1754286,12.5445714 36.1754286,12.6605714 L36.1754286,14.6988571 C36.1754286,14.8148571 36.2582857,14.8977143 36.3742857,14.8977143 L39.788,14.8977143 C40.0365714,14.8977143 40.252,15.0965714 40.252,15.3617143 L40.252,17.5325714 C40.252,17.7811429 40.0531429,17.9965714 39.788,17.9965714 L36.3742857,17.9965714 C36.2582857,17.9965714 36.1754286,18.0794286 36.1754286,18.1954286 L36.1754286,23.2 C36.1754286,23.4485714 35.9765714,23.664 35.7114286,23.664 L32.9108571,23.664 C32.6622857,23.664 32.4468571,23.4651429 32.4468571,23.2 L32.4468571,9.82685714 C32.4468571,9.57828571 32.6457143,9.36285714 32.9108571,9.36285714 L40.1691429,9.36285714 C40.4177143,9.36285714 40.6331429,9.56171429 40.6331429,9.82685714 L40.6331429,11.9977143 C40.6497143,12.2628571 40.4508571,12.4617143 40.1857143,12.4617143 Z" id="Path"></path>
                            <path d="M56.1937143,17.5988571 C56.2102857,18.3445714 56.1274286,19.0737143 55.9782857,19.8028571 C55.7628571,20.7474286 55.2325714,21.6091429 54.4205714,22.388 C53.2605714,23.4817143 51.7028571,24.0285714 49.764,24.0285714 C47.792,24.0285714 46.2508571,23.4651429 45.1405714,22.3548571 C44.544,21.7417143 44.1297143,20.9794286 43.9308571,20.1508571 C43.7651429,19.3222857 43.6822857,18.4605714 43.6988571,17.6154286 L43.6988571,9.82685714 C43.6988571,9.57828571 43.8977143,9.36285714 44.1628571,9.36285714 L46.9634286,9.36285714 C47.212,9.36285714 47.4274286,9.56171429 47.4274286,9.82685714 L47.4274286,17.1017143 C47.4274286,17.7314286 47.444,18.1954286 47.4605714,18.4937143 C47.5268571,19.4714286 47.9742857,20.1342857 48.7862857,20.532 C49.1342857,20.6977143 49.5154286,20.7805714 49.8965714,20.764 C50.808,20.764 51.4874286,20.4491429 51.9514286,19.8194286 C52.2994286,19.3554286 52.4651429,18.444 52.4651429,17.1017143 L52.4651429,9.82685714 C52.4651429,9.57828571 52.664,9.36285714 52.9291429,9.36285714 C52.9291429,9.36285714 52.9291429,9.36285714 52.9291429,9.36285714 L55.7131429,9.36285714 C55.9617143,9.36285714 56.1771429,9.56171429 56.1771429,9.82685714 L56.1937143,17.5988571 Z" id="Path"></path>
                            <path d="M69.9645714,18.9245714 C69.9645714,21.344 68.904,22.9182857 66.7828571,23.6474286 C66.0205714,23.9125714 65.2085714,24.0451429 64.3965714,24.0285714 C62.756,24.0285714 61.1485714,23.548 59.7731429,22.6365714 C59.5742857,22.504 59.4914286,22.2388571 59.6074286,22.0234286 L60.7342857,19.9022857 C60.8502857,19.6702857 61.132,19.5874286 61.3474286,19.7034286 C61.364,19.72 61.3971429,19.7365714 61.4137143,19.7531429 C62.3914286,20.532 63.336,20.9131429 64.2805714,20.9131429 C64.7114286,20.9297143 65.1422857,20.8137143 65.5068571,20.5817143 C65.888,20.3497143 66.1034286,19.9354286 66.0868571,19.5045714 C66.0868571,19.0737143 65.8714286,18.7257143 65.4405714,18.444 C65.1257143,18.2285714 64.5788571,18.0131429 63.8165714,17.7977143 C62.8885714,17.5325714 62.3085714,17.3337143 62.0765714,17.2342857 C61.7285714,17.0851429 61.3971429,16.9028571 61.1154286,16.6708571 C60.3697143,16.0411429 59.9885714,15.0965714 59.9885714,13.8205714 C59.9885714,12.4948571 60.3862857,11.4011429 61.1651429,10.5228571 C62.0931429,9.49542857 63.3194286,8.98171429 64.8605714,8.98171429 C66.2857143,8.98171429 67.6777143,9.31314286 68.9702857,9.92628571 C69.2022857,10.0422857 69.3017143,10.3074286 69.2022857,10.5394286 C69.2022857,10.5394286 69.2022857,10.556 69.1857143,10.556 L68.1417143,12.5942857 C68.0257143,12.8262857 67.744,12.9091429 67.512,12.7931429 C67.4954286,12.7931429 67.4788571,12.7765714 67.4788571,12.7765714 C66.8822857,12.3622857 66.1697143,12.1302857 65.4405714,12.1137143 C65.0594286,12.1137143 64.6948571,12.2297143 64.3634286,12.4285714 C64.032,12.6108571 63.8331429,12.9754286 63.8331429,13.3565714 C63.8331429,13.7377143 64.0651429,14.0525714 64.5291429,14.3342857 C64.7445714,14.4668571 65.3742857,14.6822857 66.4182857,14.9805714 C67.7274286,15.3617143 68.672,15.9085714 69.2354286,16.6211429 C69.7325714,17.2177143 69.9645714,17.98 69.9645714,18.9245714 Z" id="Path"></path>
                            <rect id="Rectangle" x="73.1628571" y="9.36285714" width="3.72857143" height="14.3011429"></rect>
                            <path d="M95.932,16.5548571 C95.9485714,18.444 95.2525714,20.2668571 93.9931429,21.6588571 C92.5182857,23.3325714 90.5297143,24.1611429 88.0108571,24.1611429 C85.492,24.1611429 83.5034286,23.3325714 82.0451429,21.6588571 C80.7857143,20.2668571 80.0897143,18.4274286 80.1062857,16.5548571 C80.1228571,15.6268571 80.2885714,14.6988571 80.6365714,13.8205714 C80.9514286,12.9422857 81.432,12.1302857 82.0285714,11.4342857 C83.5034286,9.76057143 85.492,8.932 88.0108571,8.932 C90.5297143,8.932 92.5182857,9.76057143 93.9931429,11.4342857 C95.2691429,12.8428571 95.9651429,14.6657143 95.932,16.5548571 Z M92.0874286,16.5548571 C92.104,15.5937143 91.756,14.6657143 91.1262857,13.9365714 C89.668,12.2297143 87.0994286,12.0308571 85.3925714,13.4891429 C84.4977143,14.2514286 83.9674286,15.3782857 83.9674286,16.5548571 C83.9674286,17.516 84.2988571,18.4274286 84.9285714,19.14 C85.6908571,20.068 86.8177143,20.5817143 88.0108571,20.5651429 C90.2314286,20.5817143 92.0542857,18.8085714 92.0708571,16.588 C92.0874286,16.5714286 92.0874286,16.5714286 92.0874286,16.5548571 Z" id="Shape" fill-rule="nonzero"></path>
                            <path d="M112.967429,23.664 L109.934857,23.664 C109.785714,23.664 109.653143,23.5977143 109.570286,23.4817143 L103.223429,15.3617143 C103.157143,15.2788571 103.024571,15.2622857 102.941714,15.3285714 C102.892,15.3617143 102.858857,15.428 102.858857,15.4777143 L102.858857,23.6474286 L99.5942857,23.6474286 C99.3457143,23.6474286 99.1302857,23.4485714 99.1302857,23.1834286 L99.1302857,9.82685714 C99.1302857,9.57828571 99.3291429,9.36285714 99.5942857,9.36285714 L102.626857,9.36285714 C102.776,9.36285714 102.908571,9.42914286 102.991429,9.54514286 L109.338286,17.6651429 C109.404571,17.748 109.537143,17.7645714 109.62,17.6982857 C109.669714,17.6651429 109.702857,17.5988571 109.702857,17.5325714 L109.702857,9.82685714 C109.702857,9.57828571 109.901714,9.36285714 110.166857,9.36285714 L112.967429,9.36285714 C113.216,9.36285714 113.431429,9.56171429 113.431429,9.82685714 L113.431429,23.2 C113.431429,23.4485714 113.216,23.664 112.967429,23.664 Z" id="Path"></path>
                            <path d="M13.1908571,9.49542857 C8.76628571,16.2731429 6.04857143,25.6857143 4.988,28.884 C4.39142857,22.852 7.54,14.6325714 9.84342857,9.77714286 C8.78285714,9.82685714 3.132,10.2245714 0,13.456 C0,13.456 1.69028571,8.26914286 11.4508571,6.69485714 L11.484,6.62857143 C19.1234286,-4.524 24.8571429,2.13771429 24.8571429,2.13771429 C21.3771429,1.55771429 18.3445714,3.29771429 15.7594286,6.13142857 C17.0188571,6.08171429 25.172,5.98228571 27.5251429,12.4285714 C27.5251429,12.4285714 22.8022857,9.048 13.1908571,9.49542857 Z M18.7091429,17.2674286 C16.7537143,17.2674286 15.1628571,18.8582857 15.1628571,20.8137143 C15.1628571,22.7691429 16.7537143,24.36 18.7091429,24.36 C20.6645714,24.36 22.2554286,22.7691429 22.2554286,20.8137143 C22.2554286,18.8417143 20.6645714,17.2674286 18.7091429,17.2674286 Z" id="Shape" fill-rule="nonzero"></path>
                        </g>
                    </g>
                </g>
            </g>
        </g>
    </g>
</svg>

<svg xmlns="http://www.w3.org/2000/svg" width="129" height="29" viewBox="0 0 129 29">
    <defs>
        <linearGradient id="a" x1="30.147%" x2="78.919%" y1="6.312%" y2="101.828%">
            <stop offset="0%" stop-color="#5600DB"/>
            <stop offset="100%" stop-color="#21A9D5"/>
        </linearGradient>
    </defs>
    <g fill="none" fill-rule="evenodd">
        <path fill="#062144" d="M40.186 12.462h-3.812a.191.191 0 0 0-.199.199v2.038c0 .116.083.199.2.199h3.413c.249 0 .464.199.464.464v2.17a.463.463 0 0 1-.464.465h-3.414a.191.191 0 0 0-.199.198V23.2a.463.463 0 0 1-.464.464h-2.8a.463.463 0 0 1-.464-.464V9.827c0-.249.199-.464.464-.464h7.258c.249 0 .464.199.464.464v2.17c.017.266-.182.465-.447.465zM56.194 17.599a9.847 9.847 0 0 1-.216 2.204c-.215.944-.745 1.806-1.557 2.585-1.16 1.094-2.718 1.64-4.657 1.64-1.972 0-3.513-.563-4.623-1.673a4.743 4.743 0 0 1-1.21-2.204 11.84 11.84 0 0 1-.232-2.536V9.827c0-.249.199-.464.464-.464h2.8c.249 0 .464.199.464.464v7.275c0 .63.017 1.093.034 1.392.066.977.513 1.64 1.325 2.038.348.166.73.249 1.11.232.912 0 1.591-.315 2.055-.945.348-.464.514-1.375.514-2.717V9.827c0-.249.199-.464.464-.464h2.784c.249 0 .464.199.464.464l.017 7.772zM69.965 18.925c0 2.419-1.061 3.993-3.182 4.722a6.859 6.859 0 0 1-2.386.382c-1.641 0-3.248-.481-4.624-1.392a.474.474 0 0 1-.166-.614l1.127-2.12a.45.45 0 0 1 .613-.2c.017.017.05.034.067.05.977.779 1.922 1.16 2.867 1.16.43.017.861-.1 1.226-.331.381-.232.596-.647.58-1.077 0-.431-.216-.78-.646-1.061-.315-.215-.862-.43-1.624-.646-.928-.265-1.508-.464-1.74-.564a3.96 3.96 0 0 1-.962-.563c-.745-.63-1.126-1.574-1.126-2.85 0-1.326.397-2.42 1.176-3.298.928-1.028 2.154-1.541 3.696-1.541 1.425 0 2.817.331 4.11.944.231.116.33.381.231.613 0 0 0 .017-.016.017l-1.044 2.038a.465.465 0 0 1-.63.2c-.017 0-.033-.017-.033-.017a3.731 3.731 0 0 0-2.038-.663c-.382 0-.746.116-1.078.315-.331.182-.53.546-.53.928 0 .38.232.696.696.977.216.133.845.348 1.89.647 1.308.38 2.253.928 2.816 1.64.498.597.73 1.359.73 2.304zM73.163 9.363h3.729v14.301h-3.729z"/>
        <path fill="#062144" fill-rule="nonzero" d="M95.932 16.555a7.513 7.513 0 0 1-1.939 5.104c-1.475 1.674-3.463 2.502-5.982 2.502s-4.508-.828-5.966-2.502a7.543 7.543 0 0 1-1.939-5.104 7.785 7.785 0 0 1 .53-2.734 7.653 7.653 0 0 1 1.393-2.387c1.474-1.673 3.463-2.502 5.982-2.502s4.507.829 5.982 2.502a7.428 7.428 0 0 1 1.939 5.12zm-3.845 0a3.905 3.905 0 0 0-.96-2.618 4.068 4.068 0 0 0-5.734-.448 4.048 4.048 0 0 0-1.426 3.066c0 .961.332 1.872.962 2.585a3.897 3.897 0 0 0 3.082 1.425c2.22.017 4.043-1.756 4.06-3.977.016-.017.016-.017.016-.033z"/>
        <path fill="#062144" d="M112.967 23.664h-3.032a.44.44 0 0 1-.365-.182l-6.347-8.12a.207.207 0 0 0-.281-.033.198.198 0 0 0-.083.149v8.17h-3.265a.463.463 0 0 1-.464-.465V9.827c0-.249.2-.464.464-.464h3.033a.44.44 0 0 1 .364.182l6.347 8.12a.207.207 0 0 0 .365-.132V9.827c0-.249.199-.464.464-.464h2.8c.249 0 .464.199.464.464V23.2a.474.474 0 0 1-.464.464z"/>
        <path fill="url(#a)" fill-rule="nonzero" d="M13.19 9.495c-4.424 6.778-7.141 16.19-8.202 19.389-.597-6.032 2.552-14.251 4.855-19.107-1.06.05-6.711.448-9.843 3.679 0 0 1.69-5.187 11.45-6.761l.034-.066c7.64-11.153 13.373-4.491 13.373-4.491-3.48-.58-6.512 1.16-9.098 3.993 1.26-.05 9.413-.149 11.766 6.298 0 0-4.723-3.381-14.334-2.934zm5.52 7.772a3.55 3.55 0 0 0-3.547 3.547 3.55 3.55 0 0 0 3.546 3.546 3.55 3.55 0 0 0 3.546-3.546 3.54 3.54 0 0 0-3.546-3.547z"/>
        <path fill="#DDD" d="M128.346 24.923h-.912V5.701h.912z"/>
    </g>
</svg>
